resources/icons/16px/curly-braces.svg

<svg width="16" height="16" viewBox="0 0 16 16" fill="none" xmlns="http://www.w3.org/2000/svg">
<path fill-rule="evenodd" clip-rule="evenodd" d="M3.61907 3.05582C4.10275 2.24969 5.00011 2 6 2C6.55228 2 7 2.44772 7 3C7 3.55228 6.55228 4 6 4C5.55948 4 5.38538 4.06477 5.32922 4.09738C5.3218 4.11898 5.30829 4.16939 5.30051 4.26644C5.28823 4.41966 5.29489 4.60871 5.31077 4.87878C5.31299 4.91652 5.31547 4.95605 5.31805 4.99723C5.34807 5.47628 5.39198 6.17712 5.2063 6.85142C5.09285 7.26344 4.90076 7.652 4.61047 8C4.90076 8.348 5.09285 8.73656 5.2063 9.14858C5.39198 9.82288 5.34807 10.5237 5.31805 11.0028C5.31547 11.0439 5.31299 11.0835 5.31077 11.1212C5.29489 11.3913 5.28823 11.5803 5.30051 11.7336C5.30829 11.8306 5.3218 11.881 5.32922 11.9026C5.38538 11.9352 5.55948 12 6 12C6.55228 12 7 12.4477 7 13C7 13.5523 6.55228 14 6 14C5.00011 14 4.10275 13.7503 3.61907 12.9442C3.40408 12.5859 3.33202 12.2067 3.30691 11.8934C3.28208 11.5837 3.29886 11.265 3.31423 11.0038L3.31556 10.9811C3.3493 10.4079 3.37207 10.0209 3.27807 9.67954C3.20648 9.41955 3.05432 9.1452 2.55279 8.89443C2.214 8.72504 2 8.37877 2 8C2 7.62123 2.214 7.27496 2.55279 7.10557C3.05432 6.8548 3.20648 6.58045 3.27807 6.32046C3.37207 5.97908 3.3493 5.59207 3.31556 5.01892L3.31423 4.99622C3.29886 4.73504 3.28208 4.41628 3.30691 4.10661C3.33202 3.79333 3.40408 3.41414 3.61907 3.05582ZM5.30665 11.8844C5.30665 11.8844 5.31405 11.8878 5.32269 11.8986C5.30995 11.8905 5.30665 11.8844 5.30665 11.8844ZM5.30665 4.1156C5.30665 4.1156 5.30994 4.10951 5.32269 4.10135C5.31405 4.11219 5.30665 4.1156 5.30665 4.1156Z" fill="#5F6B7C"/>
<path fill-rule="evenodd" clip-rule="evenodd" d="M12.3809 3.05582C11.8973 2.24969 10.9999 2 10 2C9.44772 2 9 2.44772 9 3C9 3.55228 9.44772 4 10 4C10.4405 4 10.6146 4.06477 10.6708 4.09738C10.6782 4.11898 10.6917 4.16939 10.6995 4.26644C10.7118 4.41966 10.7051 4.60871 10.6892 4.87878C10.687 4.91652 10.6845 4.95605 10.6819 4.99723C10.6519 5.47628 10.608 6.17712 10.7937 6.85142C10.9072 7.26344 11.0992 7.652 11.3895 8C11.0992 8.348 10.9072 8.73656 10.7937 9.14858C10.608 9.82288 10.6519 10.5237 10.6819 11.0028C10.6845 11.0439 10.687 11.0835 10.6892 11.1212C10.7051 11.3913 10.7118 11.5803 10.6995 11.7336C10.6917 11.8306 10.6782 11.881 10.6708 11.9026C10.6146 11.9352 10.4405 12 10 12C9.44772 12 9 12.4477 9 13C9 13.5523 9.44772 14 10 14C10.9999 14 11.8973 13.7503 12.3809 12.9442C12.5959 12.5859 12.668 12.2067 12.6931 11.8934C12.7179 11.5837 12.7011 11.265 12.6858 11.0038L12.6844 10.9811C12.6507 10.4079 12.6279 10.0209 12.7219 9.67954C12.7935 9.41955 12.9457 9.1452 13.4472 8.89443C13.786 8.72504 14 8.37877 14 8C14 7.62123 13.786 7.27496 13.4472 7.10557C12.9457 6.8548 12.7935 6.58045 12.7219 6.32046C12.6279 5.97908 12.6507 5.59207 12.6844 5.01892L12.6858 4.99622C12.7011 4.73504 12.7179 4.41628 12.6931 4.10661C12.668 3.79333 12.5959 3.41414 12.3809 3.05582ZM10.6933 11.8844C10.6933 11.8844 10.6859 11.8878 10.6773 11.8986C10.6901 11.8905 10.6933 11.8844 10.6933 11.8844ZM10.6933 4.1156C10.6933 4.1156 10.6901 4.10951 10.6773 4.10135C10.6859 4.11219 10.6933 4.1156 10.6933 4.1156Z" fill="#5F6B7C"/>
</svg>

<svg xmlns="http://www.w3.org/2000/svg" viewBox="0 0 16 16">
  <path d="M3.62 3.056C4.102 2.25 5 2 6 2a1 1 0 0 1 0 2c-.44 0-.615.065-.67.097a.7.7 0 0 0-.03.17c-.012.153-.005.342.01.612l.008.118c.03.48.074 1.18-.112 1.854-.113.412-.305.801-.596 1.149.29.348.483.737.596 1.149.186.674.142 1.375.112 1.854l-.007.118a5 5 0 0 0-.01.613.7.7 0 0 0 .028.169c.056.032.23.097.671.097a1 1 0 1 1 0 2c-1 0-1.897-.25-2.38-1.056a2.4 2.4 0 0 1-.313-1.05 6.5 6.5 0 0 1 .007-.89l.002-.023c.033-.573.056-.96-.038-1.301-.072-.26-.224-.535-.725-.786a1 1 0 0 1 0-1.788c.501-.251.653-.526.725-.786.094-.34.071-.728.038-1.301l-.002-.023a6.5 6.5 0 0 1-.007-.89c.025-.313.097-.692.312-1.05m1.687 8.828q.001 0 .016.015-.018-.014-.016-.015m0-7.768q-.002 0 .016-.015-.015.016-.016.015M12.38 3.056C11.898 2.25 11 2 10 2a1 1 0 0 0 0 2c.44 0 .615.065.67.097a.7.7 0 0 1 .03.17c.012.153.005.342-.01.612l-.008.118c-.03.48-.074 1.18.112 1.854.113.412.305.801.595 1.149-.29.348-.482.737-.595 1.149-.186.674-.142 1.375-.112 1.854l.007.118c.016.27.023.46.01.613a.7.7 0 0 1-.028.169c-.056.032-.23.097-.671.097a1 1 0 1 0 0 2c1 0 1.897-.25 2.38-1.056.216-.358.288-.737.313-1.05.025-.31.008-.629-.007-.89l-.002-.023c-.033-.573-.056-.96.038-1.301.072-.26.224-.535.725-.786a1 1 0 0 0 0-1.788c-.501-.251-.653-.526-.725-.786-.094-.34-.071-.728-.038-1.301l.002-.023c.015-.261.032-.58.007-.89a2.4 2.4 0 0 0-.312-1.05m-1.687 8.828q-.001 0-.016.015.018-.014.016-.015m0-7.768q.002 0-.016-.015.015.016.016.015"/>
</svg>
